X: 050
T: Eblana's Fair Daughters (jig)
N: 050214
C: BB
R: jig
Q: 340
M: 6/8
L: 1/8
K: G
D|"G"B,DE B,DE | "C"GFG "Am"AGE | "G"B,DE B,DE | "C"GFE "D"DB,A, |
"G"B,DE B,DE | "C"GFG "Am"ABc | "G"BcB "Am"AGA | "G"BGF "G"G2 :|
A|"G"BGG dGG | "C"gfe "D"dBA | "G"BGB deg | "Em"BAG "D"A2 A |
"G"BGG dGG | "C"gfe "D"def | "G"gdB "Am"Adc |"G"BGF "G"G2 :|
%%%%%%%%%%%%%%%%%%%%%%%%%%%%%%%%%%%%%%%%%%%
